X:1
T:Title
L:1/8
Q:1/4=120
M:4/4
K:Bb
V:1 treble nm="Grand Piano"
V:1
 z2 D2 E2 F2 | A3 A A4 | z2 AB cBAG | A3 A A4 | z2 AB cBAG | A3 A A4 | z2 A2 B2 A2 | %7
 G3 G- G G2 ^F | G3 G AGGF | F4 F4 | z2 EE F2 E2 | D8 |] %12

